resources/svg/bracket-o.svg

<svg xmlns="http://www.w3.org/2000/svg" viewBox="0 0 15 15" fill="none"><path d="M0 7.5H2M15 7.5H13M5 14.5H3.5C2.39543 14.5 1.5 13.6046 1.5 12.5V2.5C1.5 1.39543 2.39543 0.5 3.5 0.5H5M10 14.5H11.5C12.6046 14.5 13.5 13.6046 13.5 12.5V2.5C13.5 1.39543 12.6046 0.5 11.5 0.5H10" stroke="black"/></svg>

<svg xmlns="http://www.w3.org/2000/svg" viewBox="0 0 15 15" fill="none"><path d="M0 7.5h2m13 0h-2m-8 7H3.5a2 2 0 01-2-2v-10a2 2 0 012-2H5m5 14h1.5a2 2 0 002-2v-10a2 2 0 00-2-2H10" stroke="currentColor"/></svg>
